storage/app/icons/phosphoricons/light/speaker-hifi-light.svg

<svg xmlns="http://www.w3.org/2000/svg" fill="currentColor" viewBox="0 0 256 256"><path d="M192 26H64a14 14 0 0 0-14 14v176a14 14 0 0 0 14 14h128a14 14 0 0 0 14-14V40a14 14 0 0 0-14-14m2 190a2 2 0 0 1-2 2H64a2 2 0 0 1-2-2V40a2 2 0 0 1 2-2h128a2 2 0 0 1 2 2ZM118 76a10 10 0 1 1 10 10 10 10 0 0 1-10-10m10 38a38 38 0 1 0 38 38 38 38 0 0 0-38-38m0 64a26 26 0 1 1 26-26 26 26 0 0 1-26 26"/></svg>

<svg xmlns="http://www.w3.org/2000/svg" viewBox="0 0 256 256" fill="currentColor"><path d="M192,26H64A14,14,0,0,0,50,40V216a14,14,0,0,0,14,14H192a14,14,0,0,0,14-14V40A14,14,0,0,0,192,26Zm2,190a2,2,0,0,1-2,2H64a2,2,0,0,1-2-2V40a2,2,0,0,1,2-2H192a2,2,0,0,1,2,2ZM118,76a10,10,0,1,1,10,10A10,10,0,0,1,118,76Zm10,38a38,38,0,1,0,38,38A38,38,0,0,0,128,114Zm0,64a26,26,0,1,1,26-26A26,26,0,0,1,128,178Z"/></svg>
